plugins/tech/atlas/src/main/resources/atlas_logo.svg

<!--
 * Licensed to the Apache Software Foundation (ASF) under one or more
 * contributor license agreements.  See the NOTICE file distributed with
 * this work for additional information regarding copyright ownership.
 * The ASF licenses this file to You under the Apache License, Version 2.0
 * (the "License"); you may not use this file except in compliance with
 * the License.  You may obtain a copy of the License at
 *
 *     http://www.apache.org/licenses/LICENSE-2.0
 *
 * Unless required by applicable law or agreed to in writing, software
 * distributed under the License is distributed on an "AS IS" BASIS,
 * WITHOUT WARRANTIES OR CONDITIONS OF ANY KIND, either express or implied.
 * See the License for the specific language governing permissions and
 * limitations under the License.
-->
<svg xmlns="http://www.w3.org/2000/svg" viewBox="0 0 976.59 177.38"><defs><style>.cls-1{fill:#cdcccc;}.cls-2,.cls-3{fill:#1fcfb8;}.cls-2{stroke:#1fcfb8;stroke-width:1.18px;}.cls-2,.cls-4,.cls-5{stroke-miterlimit:10;}.cls-4,.cls-5{fill:none;stroke:#cdcccc;}.cls-4{stroke-width:3.55px;}.cls-5{stroke-width:5px;}.cls-6{fill:#009883;}</style></defs><title>Asset 6</title><g id="Layer_2" data-name="Layer 2"><g id="Layer_1-2" data-name="Layer 1"><path class="cls-1" d="M260.81,55.74l23.37,65.13h9.5v10.65H259.34V119.68h10.91l-6.48-18.94h-30.3L227,119.68h9.86v11.84H202.5V120.87h10.42l23.26-65.13h-10V45.08h45V55.74Zm-12,0h-.4L236.17,91.26h24.6Z"/><path class="cls-1" d="M364.14,101.68a34.15,34.15,0,0,1-3.79,15.82A29.78,29.78,0,0,1,350,129.12a26,26,0,0,1-14.5,4.26q-11.75,0-20.53-9.32v24h11.84v9.48H292.5V148.1h10.65V81.79h-9.47V71.13H315V80.8a29.25,29.25,0,0,1,9.57-7.89,24.9,24.9,0,0,1,11.18-2.58,26.37,26.37,0,0,1,14.75,4.22A28.79,28.79,0,0,1,360.55,86,34.74,34.74,0,0,1,364.14,101.68Zm-27.89,20.38a14.71,14.71,0,0,0,8.85-2.85,19,19,0,0,0,6.17-7.77,24.78,24.78,0,0,0,2.23-10.39A21.46,21.46,0,0,0,351,90.86a19.41,19.41,0,0,0-6.74-7.43,17.42,17.42,0,0,0-9.65-2.77,17.84,17.84,0,0,0-10,2.94,20,20,0,0,0-6.9,7.8,23.28,23.28,0,0,0-2.46,10.68q0,9.36,5.91,14.67T336.25,122.06Z"/><path class="cls-1" d="M425.12,92.5v28.37h9.48v10.65H414.47v-7.36q-8.46,8.39-18.84,8.39a19.87,19.87,0,0,1-10-2.57,20.29,20.29,0,0,1-7.28-6.88,18.22,18.22,0,0,1,.29-19.64,19.75,19.75,0,0,1,8.14-6.83,24.36,24.36,0,0,1,10.33-2.39,28,28,0,0,1,16.18,5.14V92.73q0-7.17-3-10.27t-10-3.09a17.17,17.17,0,0,0-8.19,1.78,14.27,14.27,0,0,0-5.46,5.4l-11.55-2.86a25.87,25.87,0,0,1,10.56-10.88,32.9,32.9,0,0,1,15.81-3.59q12.31,0,18,5.6T425.12,92.5ZM397,123q8.67,0,16.27-7.25v-7q-7.71-6-15.41-6a11.92,11.92,0,0,0-8.08,2.94,9.87,9.87,0,0,0-.43,14.51A10.66,10.66,0,0,0,397,123Z"/><path class="cls-1" d="M487.89,75.43v-4.3h10.65v22.5H487.89a13.49,13.49,0,0,0-5.33-9.92,17.57,17.57,0,0,0-10.72-3.42A16.68,16.68,0,0,0,462.49,83a17.94,17.94,0,0,0-6.4,7.35,22.75,22.75,0,0,0-2.26,10.12q0,9.33,5.09,15.23a16.89,16.89,0,0,0,13.44,5.91q12.92,0,18.25-11.7l10,4.64q-8.4,17.74-28.73,17.75a31.11,31.11,0,0,1-16.16-4.19,28.58,28.58,0,0,1-10.92-11.47,34,34,0,0,1-3.85-16.17,32.33,32.33,0,0,1,3.91-15.83,28.48,28.48,0,0,1,10.74-11.11,29.78,29.78,0,0,1,15.24-4A26,26,0,0,1,487.89,75.43Z"/><path class="cls-1" d="M550.4,69.52q16.83,0,16.83,18.1v33.25h10.66v10.65h-22.5V92.24c0-4.3-.63-7.33-1.87-9.08a6.64,6.64,0,0,0-5.79-2.63q-6.62,0-17.21,7.71v32.63h10.66v10.65H508V120.87h10.66V55.74H508V45.08h22.5V78.14Q541.2,69.52,550.4,69.52Z"/><path class="cls-1" d="M647.69,104.29H597.38q1.1,8.63,6.68,13.62a19.86,19.86,0,0,0,13.71,5,25,25,0,0,0,11-2.45,21.5,21.5,0,0,0,8.51-7.54l10.39,4.68a31.54,31.54,0,0,1-12.88,11.57,38.86,38.86,0,0,1-17.33,3.91A35.72,35.72,0,0,1,600.24,129a29.3,29.3,0,0,1-11.74-11.3,34,34,0,0,1,0-32.61,29.78,29.78,0,0,1,11.33-11.33,33.82,33.82,0,0,1,32.41.11,29.36,29.36,0,0,1,11.1,12A42.4,42.4,0,0,1,647.69,104.29ZM615.88,79.67a17,17,0,0,0-11.7,4.48A20.6,20.6,0,0,0,597.73,96H635.3a20.89,20.89,0,0,0-7-11.85A18.77,18.77,0,0,0,615.88,79.67Z"/><path class="cls-2" d="M738,55.74l23.37,65.13h9.5v10.65H736.57V119.68h10.91L741,100.74H710.69l-6.48,18.94h9.86v11.84H679.73V120.87h10.42l23.26-65.13h-10V45.08h45V55.74Zm-12.34,0h-.4L713.05,91.26h24.61Z"/><path class="cls-2" d="M806.43,71.13V81.79H795.78v31.74q0,4.95,1,6.42a4,4,0,0,0,3.53,1.47,18,18,0,0,0,6.1-1.1v10.11a33,33,0,0,1-8.74,1.58q-7.32,0-10.54-3.69t-3.21-12.66V81.79h-8.29V71.13h7.1V62l13-10.79V71.13Z"/><path class="cls-2" d="M847.88,120.87v10.65h-32V120.87h10.66V55.74H815.91V45.08h22.5v75.79Z"/><path class="cls-2" d="M908.28,92.5v28.37h9.47v10.65H897.62v-7.36q-8.46,8.39-18.83,8.39a19.89,19.89,0,0,1-10-2.57,20.26,20.26,0,0,1-7.27-6.88,18.25,18.25,0,0,1,.28-19.64A19.78,19.78,0,0,1,870,96.63a24.24,24.24,0,0,1,10.31-2.39,28,28,0,0,1,16.17,5.14V92.73q0-7.17-3-10.27t-10-3.09a17.18,17.18,0,0,0-8.2,1.78,14.18,14.18,0,0,0-5.45,5.4l-11.56-2.86a25.87,25.87,0,0,1,10.56-10.88,32.9,32.9,0,0,1,15.81-3.59q12.31,0,18,5.6T908.28,92.5ZM880.16,123q8.69,0,16.27-7.25v-7q-7.7-6-15.41-6a11.92,11.92,0,0,0-8.08,2.94,9.87,9.87,0,0,0-.43,14.51A10.66,10.66,0,0,0,880.16,123Z"/><path class="cls-2" d="M962.75,73.32V71.13h10.66V91.26H962.75V87.61a16,16,0,0,0-13.87-7.37,12.87,12.87,0,0,0-7.56,2.06,6.22,6.22,0,0,0-2.93,5.31,5.4,5.4,0,0,0,2.22,4.57q2.24,1.65,10,2.91l7.84,1.54Q976,99.89,976,114.05a16.11,16.11,0,0,1-6.35,13.3q-6.33,5-16.83,5a28,28,0,0,1-8.2-1.23,25,25,0,0,1-6.74-3.06v2.25H927.22V110.21h10.66v2.05a10.58,10.58,0,0,0,4.76,7,16,16,0,0,0,9.11,2.63q5.7,0,9-2a6.63,6.63,0,0,0,3.27-6,4.71,4.71,0,0,0-2.6-4.37q-2.58-1.45-10.43-3l-6-1.31q-9-1.83-13.14-6.28a16,16,0,0,1-4.17-11.37,15.12,15.12,0,0,1,3.07-9.56,19,19,0,0,1,7.87-6,25.41,25.41,0,0,1,9.86-2Q956.94,70,962.75,73.32Z"/><path class="cls-3" d="M76.38,0,0,48.2v80.66l76.38,48.2,76.38-48.2V48.2Zm56.25,118.23-56.25,35.5-56.25-35.5V58.83l56.25-35.5,56.25,35.5Z"/><circle class="cls-4" cx="62.76" cy="122.05" r="4.74"/><circle class="cls-4" cx="107.76" cy="80.6" r="5.33"/><circle class="cls-5" cx="59.21" cy="81.79" r="8.5"/><line class="cls-4" x1="59" y1="90.19" x2="61.96" y2="117.39"/><line class="cls-4" x1="102.43" y1="81.79" x2="68" y2="82.19"/><g id="search"><path class="cls-3" d="M84.24,98.37H81l-1.22-1.22a25.43,25.43,0,0,0,6.5-17.05,26.39,26.39,0,1,0-26.39,26.39A25.43,25.43,0,0,0,76.93,100l1.22,1.22v3.25l20.3,20.3,6.09-6.09Zm-24.36,0A18.27,18.27,0,1,1,78.15,80.1,18.19,18.19,0,0,1,59.88,98.37Z"/></g><polygon class="cls-6" points="152.76 48.1 132.63 58.73 132.63 118.24 75.79 154.11 75.79 177.38 152.76 128.81 152.76 48.1"/></g></g></svg>

<?xml version="1.0" encoding="UTF-8" standalone="no"?>
<!--
 * Licensed to the Apache Software Foundation (ASF) under one or more
 * contributor license agreements.  See the NOTICE file distributed with
 * this work for additional information regarding copyright ownership.
 * The ASF licenses this file to You under the Apache License, Version 2.0
 * (the "License"); you may not use this file except in compliance with
 * the License.  You may obtain a copy of the License at
 *
 *     http://www.apache.org/licenses/LICENSE-2.0
 *
 * Unless required by applicable law or agreed to in writing, software
 * distributed under the License is distributed on an "AS IS" BASIS,
 * WITHOUT WARRANTIES OR CONDITIONS OF ANY KIND, either express or implied.
 * See the License for the specific language governing permissions and
 * limitations under the License.
-->
<svg
   viewBox="152.853 161.31 152.76 177.38"
   width="152.76"
   height="177.38"
   version="1.1"
   id="svg22"
   xmlns="http://www.w3.org/2000/svg"
   xmlns:svg="http://www.w3.org/2000/svg">
  <defs
     id="defs26" />
  <g
     id="Layer_2"
     data-name="Layer 2"
     transform="matrix(1, 0, 0, 1, 152.853187, 161.310005)">
    <g
       id="g4">
      <path
         class="cls-3"
         d="M 76.38 0 L 0 48.2 L 0 128.86 L 76.38 177.06 L 152.76 128.86 L 152.76 48.2 L 76.38 0 Z M 132.63 118.23 L 76.38 153.73 L 20.13 118.23 L 20.13 58.83 L 76.38 23.33 L 132.63 58.83 L 132.63 118.23 Z"
         style="fill: rgb(31, 207, 184);"
         id="path2" />
    </g>
    <circle
       class="cls-4"
       cx="62.76"
       cy="122.05"
       r="4.74"
       style="fill: none; stroke: rgb(205, 204, 204); stroke-miterlimit: 10; stroke-width: 3.55px;"
       id="circle6" />
    <circle
       class="cls-4"
       cx="107.76"
       cy="80.6"
       r="5.33"
       style="fill: none; stroke: rgb(205, 204, 204); stroke-miterlimit: 10; stroke-width: 3.55px;"
       id="circle8" />
    <circle
       class="cls-5"
       cx="59.21"
       cy="81.79"
       r="8.5"
       style="fill: none; stroke: rgb(205, 204, 204); stroke-miterlimit: 10; stroke-width: 5px;"
       id="circle10" />
    <line
       class="cls-4"
       x1="59"
       y1="90.19"
       x2="61.96"
       y2="117.39"
       style="fill: none; stroke: rgb(205, 204, 204); stroke-miterlimit: 10; stroke-width: 3.55px;"
       id="line12" />
    <line
       class="cls-4"
       x1="102.43"
       y1="81.79"
       x2="68"
       y2="82.19"
       style="fill: none; stroke: rgb(205, 204, 204); stroke-miterlimit: 10; stroke-width: 3.55px;"
       id="line14" />
    <g
       id="search">
      <path
         class="cls-3"
         d="M84.24,98.37H81l-1.22-1.22a25.43,25.43,0,0,0,6.5-17.05,26.39,26.39,0,1,0-26.39,26.39A25.43,25.43,0,0,0,76.93,100l1.22,1.22v3.25l20.3,20.3,6.09-6.09Zm-24.36,0A18.27,18.27,0,1,1,78.15,80.1,18.19,18.19,0,0,1,59.88,98.37Z"
         style="fill: rgb(31, 207, 184);"
         id="path16" />
    </g>
    <polygon
       class="cls-6"
       points="152.76 48.1 132.63 58.73 132.63 118.24 75.79 154.11 75.79 177.38 152.76 128.81 152.76 48.1"
       style="fill: rgb(0, 152, 131);"
       id="polygon19" />
  </g>
</svg>
